; HEADER_BLOCK_START
; generated by OrcaSlicer 2.2.0-beta on 2024-10-07 at 21:41:34
; total layer number: 86
; filament_density: 1.04,1.04
; filament_diameter: 1.75,1.75
; max_z_height: 17.20
; HEADER_BLOCK_END

; THUMBNAIL_BLOCK_START

;
; THUMBNAIL_BLOCK_END

; THUMBNAIL_BLOCK_START

;
; THUMBNAIL_BLOCK_END

; external perimeters extrusion width = 0.40mm
; perimeters extrusion width = 0.40mm
; infill extrusion width = 0.45mm
; solid infill extrusion width = 0.40mm
; top infill extrusion width = 0.40mm
; first layer extrusion width = 0.50mm

; external perimeters extrusion width = 0.40mm
; perimeters extrusion width = 0.40mm
; infill extrusion width = 0.45mm
; solid infill extrusion width = 0.40mm
; top infill extrusion width = 0.40mm
; first layer extrusion width = 0.50mm

; external perimeters extrusion width = 0.40mm
; perimeters extrusion width = 0.40mm
; infill extrusion width = 0.45mm
; solid infill extrusion width = 0.40mm
; top infill extrusion width = 0.40mm
; first layer extrusion width = 0.50mm

; external perimeters extrusion width = 0.40mm
; perimeters extrusion width = 0.40mm
; infill extrusion width = 0.45mm
; solid infill extrusion width = 0.40mm
; top infill extrusion width = 0.40mm
; first layer extrusion width = 0.50mm

; external perimeters extrusion width = 0.40mm
; perimeters extrusion width = 0.40mm
; infill extrusion width = 0.45mm
; solid infill extrusion width = 0.40mm
; top infill extrusion width = 0.40mm
; first layer extrusion width = 0.50mm

; external perimeters extrusion width = 0.40mm
; perimeters extrusion width = 0.40mm
; infill extrusion width = 0.45mm
; solid infill extrusion width = 0.40mm
; top infill extrusion width = 0.40mm
; first layer extrusion width = 0.50mm

; EXECUTABLE_BLOCK_START
EXCLUDE_OBJECT_DEFINE NAME=TH_Hinge_A_Bottom_x1.stl_id_0_copy_0 CENTER=83.4643,76.6391 POLYGON=[[52.7939,99.5739],[52.8539,99.0221],[100.544,49.5262],[102.414,48.0261],[109.483,48.7901],[109.88,48.8337],[110.272,48.9089],[110.657,49.015],[111.032,49.1515],[111.394,49.3174],[111.743,49.5118],[112.075,49.7333],[112.388,49.9806],[112.68,50.2521],[112.95,50.546],[113.196,50.8605],[113.416,51.1936],[113.608,51.5431],[113.772,51.9069],[113.906,52.2826],[114.01,52.6678],[114.083,53.0601],[114.125,53.457],[114.135,53.8559],[114.112,54.2543],[114.059,54.6497],[113.973,55.0395],[113.857,55.4213],[113.711,55.7926],[113.536,56.1511],[109.912,63.4176],[108.594,64.4779],[57.8725,105.252],[57.8718,105.252],[57.3095,105.191],[56.2495,103.873],[55.4239,102.846],[52.7939,99.5739]]
EXCLUDE_OBJECT_DEFINE NAME=TH_Side_Clip_Mirror_x4.stl_id_1_copy_0 CENTER=68.4578,59.1717 POLYGON=[[51.508,51.6831],[56.2965,43.0395],[62.3013,37.0235],[85.4076,60.0869],[64.2141,81.3198],[63.0316,80.1395],[52.1101,69.2383],[51.9921,69.1097],[51.8858,68.9714],[51.7919,68.8243],[51.7112,68.6696],[51.6442,68.5085],[51.5916,68.3422],[51.5537,68.1718],[51.5308,67.9989],[51.523,67.8246],[51.5095,53.2387],[51.508,51.6831]]
EXCLUDE_OBJECT_DEFINE NAME=TH_Side_Clip_Mirror_x4.stl_id_2_copy_0 CENTER=80.3392,33.3994 POLYGON=[[64.0018,18.4217],[96.6487,18.3914],[96.6765,48.3914],[95.0058,48.393],[79.5747,48.4073],[79.4004,48.3998],[79.2274,48.3772],[79.057,48.3396],[78.8906,48.2873],[78.7293,48.2207],[78.5745,48.1403],[78.4273,48.0466],[78.2887,47.9406],[78.16,47.8228],[67.8367,37.5186],[66.7357,36.4196],[64.0097,26.9217],[64.0018,18.4217]]
EXCLUDE_OBJECT_DEFINE NAME=TH_Side_Clip_Mirror_x4.stl_id_3_copy_0 CENTER=45.4411,29.0435 POLYGON=[[30.4411,45.3669],[30.4411,12.72],[60.4411,12.7201],[60.4411,14.3908],[60.4411,29.8218],[60.4335,29.9962],[60.4107,30.1691],[60.3729,30.3395],[60.3205,30.5059],[60.2537,30.6671],[60.1731,30.8218],[60.0794,30.969],[59.9732,31.1074],[59.8553,31.2361],[49.5415,41.5498],[48.4415,42.6498],[38.9411,45.3669],[30.4411,45.3669]]
EXCLUDE_OBJECT_DEFINE NAME=TH_Side_Clip_Mirror_x4.stl_id_4_copy_0 CENTER=44.9581,83.1309 POLYGON=[[28.0122,77.1871],[28.0122,75.6315],[32.8087,66.9923],[38.8191,60.9819],[61.904,84.0668],[40.6907,105.28],[39.5094,104.099],[28.5979,93.1872],[28.4801,93.0585],[28.3739,92.9201],[28.2801,92.773],[28.1996,92.6182],[28.1328,92.457],[28.0803,92.2906],[28.0426,92.1203],[28.0198,91.9473],[28.0122,91.773],[28.0122,77.1871]]
EXCLUDE_OBJECT_DEFINE NAME=TH_Side_Clip_x4.stl_id_5_copy_0 CENTER=20.634,58.2991 POLYGON=[[3.86506,49.3034],[3.87267,49.129],[3.89546,48.9561],[3.93321,48.7857],[3.98568,48.6193],[4.05245,48.4581],[4.13301,48.3034],[4.22675,48.1562],[4.33298,48.0178],[4.45085,47.8892],[14.472,37.868],[16.1898,36.1502],[37.403,57.3634],[35.6852,59.0812],[14.3184,80.448],[8.30802,74.4376],[3.86506,66.152],[3.86506,49.3034]]
M73 P0 R48
;TYPE:Custom
status_homing
M190 S0 ; Remove this if autoemit_temperature_commands is off in Prusa Slicer 2.6 and later
M109 S0 ; Remove this if autoemit_temperature_commands is off in Prusa Slicer 2.6 and later

_PRINT_START_PHASE_INIT EXTRUDER=245 BED=115 MESH_MIN=1.15092,11.6766 MESH_MAX=116.748,106.671 LAYERS=86 NOZZLE_SIZE=0.4
; Insert custom gcode here.
status_heating
_PRINT_START_PHASE_PREHEAT

_PRINT_START_PHASE_PROBING

SET_LED_EFFECT EFFECT=heaterfire
_PRINT_START_PHASE_EXTRUDER


_PRINT_START_PHASE_PURGE

; This is the place to put slicer purge lines if you haven't set a non-zero
; variable_start_purge_length to have START_PRINT automatically calculate and 
; perform the purge (e.g. if using a Mosaic Palette, which requires the slicer
; to generate the purge).
status_printing
G90
G21
M83 ; use relative distances for extrusion
; Filament gcode
; MANUAL_TOOL_CHANGE T0
M106 S0
;LAYER_CHANGE
;Z:0.2
;HEIGHT:0.2
;BEFORE_LAYER_CHANGE
;0.2
G92 E0

G1 E-.8 F1800
;AFTER_LAYER_CHANGE
;0.2
;_SET_FAN_SPEED_CHANGING_LAYER
SET_VELOCITY_LIMIT ACCEL=500 ACCEL_TO_DECEL=250
SET_VELOCITY_LIMIT SQUARE_CORNER_VELOCITY=9
G1 Z.4 F21000
G1 X23.186 Y19.581
G1 Z.4
G1 Z.2
G1 E.8 F1800
;TYPE:Skirt
;WIDTH:0.5
G1 F3000
G1 X28.317 Y12.948 E.3079
G1 X29.483 Y12.082 E.05331
G1 X30.441 Y11.905 E.03578
G1 X40.442 Y11.905 E.36716
G1 X60.535 Y11.921 E.73771
G1 X95.072 Y15.724 E1.27565
G1 X96.419 Y16.267 E.05331
G1 X97.123 Y17.085 E.03964
G1 X115.62 Y50.244 E1.39401
G1 X116.032 Y51.14 E.03621
G1 X116.28 Y51.91 E.02968
G1 X116.48 Y53.022 E.0415
G1 X116.519 Y53.825 E.0295
G1 X116.334 Y55.422 E.05904
G1 X115.767 Y57.023 E.06233
G1 X114.954 Y58.324 E.05633
G1 X113.847 Y59.464 E.05834
G1 X61.115 Y101.857 E2.48406
G1 X59.968 Y102.396 E.04654
G1 X40.045 Y106.447 E.74643
G1 X38.596 Y106.341 E.05331
G1 X37.61 Y105.715 E.04289
G1 X26.753 Y94.853 E.56385
G1 X2.033 Y66.27 E1.3874
G1 X1.379 Y64.513 E.06881
G1 X1.379 Y49.303 E.55843
G1 X1.438 Y48.587 E.02637
G1 X1.596 Y47.93 E.02482
G1 X1.876 Y47.256 E.02679
G1 X2.228 Y46.68 E.02481
G1 X23.162 Y19.613 E1.25625
G1 X23.523 Y19.893 F21000
G1 F3000
G1 X28.678 Y13.227 E.30936
G1 X29.759 Y12.469 E.04847
G1 X30.441 Y12.362 E.02534
G1 X40.442 Y12.362 E.36716
G1 X60.485 Y12.376 E.73588
G1 X95.022 Y16.178 E1.27565
G1 X96.232 Y16.705 E.04847
G1 X96.724 Y17.308 E.02856
G1 X115.219 Y50.465 E1.39392
G1 X115.608 Y51.312 E.03422
G1 X115.839 Y52.029 E.02765
G1 X116.027 Y53.081 E.03923
G1 X116.062 Y53.812 E.02688
G1 X115.886 Y55.332 E.05618
G1 X115.354 Y56.828 E.05829
G1 X114.601 Y58.033 E.05216
G1 X113.546 Y59.119 E.0556
G1 X60.829 Y101.501 E2.48338
G1 X59.877 Y101.948 E.03862
G1 X39.953 Y106 E.74643
G1 X38.64 Y105.868 E.04847
G1 X37.934 Y105.392 E.03128
G1 X27.091 Y94.545 E.56306
G1 X2.379 Y65.971 E1.38698
G1 X1.837 Y64.513 E.0571
G1 X1.837 Y49.303 E.55843
G1 X2.029 Y48.079 E.04552
G1 X2.594 Y46.954 E.04621
G1 X23.499 Y19.924 E1.25453
; printing object TH_Side_Clip_Mirror_x4.stl id:4 copy 0
G1 E-.56 F1800
;WIPE_START
G1 F3000
G1 X24.111 Y19.133 E-.24
;WIPE_END
EXCLUDE_OBJECT_START NAME=TH_Side_Clip_Mirror_x4.stl_id_4_copy_0
G1 Z.6 F21000
G1 X60.228 Y82.744 Z.6
G1 Z.2
G1 E.8 F1800
;TYPE:Outer wall
;WIDTH:0.499999
G1 F3000
G1 X39.509 Y103.462 E1.07572
G1 X28.766 Y92.719 E.5578
G1 X28.548 Y92.247 E.01908
G1 X28.462 Y91.761 E.01812
G1 X28.462 Y77.374 E.52823
G1 X35.719 Y70.116 E.3768
;WIDTH:0.53781
G1 X35.823 Y70.039 E.00514
;WIDTH:0.57562
G1 X35.927 Y69.962 E.00553
;WIDTH:0.61343
G1 X36.031 Y69.885 E.00592
;WIDTH:0.65124
G1 X36.134 Y69.808 E.00631
;WIDTH:0.67192
G1 X36.549 Y69.408 E.02913
;WIDTH:0.694352
G1 X36.934 Y69.039 E.02789
G1 X37.006 Y68.933 E.00672
;WIDTH:0.645764
G1 X37.078 Y68.826 E.00622
;WIDTH:0.597176
G1 X37.15 Y68.72 E.00572
;WIDTH:0.548588
G1 X37.222 Y68.614 E.00522
;WIDTH:0.499999
G1 X41.66 Y64.176 E.2304
G1 X60.199 Y82.716 E.96261
G1 E-.56 F1800
;WIPE_START
G1 F3000
G1 X59.493 Y83.424 E-.24
;WIPE_END
G1 Z.6 F21000
G1 X37.994 Y94.862 Z.6
G1 Z.2
G1 E.8 F1800
G1 F3000
G1 X37.925 Y94.831 E.0028
G1 X37.537 Y94.552 E.01752
G1 X37.216 Y94.192 E.01772
G1 X37.012 Y93.834 E.01513
G1 X36.88 Y93.443 E.01513
G1 X36.825 Y93.035 E.01513
G1 X36.849 Y92.623 E.01513
G1 X36.951 Y92.224 E.01513
G1 X37.128 Y91.852 E.01513
G1 X37.373 Y91.52 E.01513
G1 X37.676 Y91.241 E.01513
G1 X38.027 Y91.025 E.01513
G1 X38.413 Y90.881 E.01513
G1 X38.819 Y90.813 E.01512
G1 X39.235 Y90.824 E.01525
G1 X39.705 Y90.936 E.01774
G1 X40.077 Y91.113 E.01513
G1 X40.409 Y91.357 E.01513
G1 X40.688 Y91.661 E.01513
G1 X40.903 Y92.012 E.01513
G1 X41.048 Y92.398 E.01513
G1 X41.116 Y92.805 E.01513
G1 X41.105 Y93.217 E.01513
G1 X41.013 Y93.625 E.01538
G1 X40.785 Y94.11 E.01966
G1 X40.524 Y94.442 E.01551
G1 X40.212 Y94.711 E.01513
G1 X39.854 Y94.915 E.01513
G1 X39.463 Y95.047 E.01513
G1 X39.055 Y95.102 E.01513
G1 X38.643 Y95.078 E.01513
G1 X38.248 Y94.978 E.01497
G1 X38.031 Y94.879 E.00878
G1 E-.56 F1800
;WIPE_START
G1 F3000
G1 X37.925 Y94.831 E-.02793
G1 X37.537 Y94.552 E-.11451
G1 X37.267 Y94.249 E-.09756
;WIPE_END
G1 Z.6 F21000
G1 X36.759 Y70.134 Z.6
G1 Z.2
G1 E.8 F1800
;WIDTH:0.698184
G1 F3000
G1 X37.008 Y69.839 E.02033
;WIDTH:0.694352
G1 X37.329 Y69.551 E.02254
G1 X37.517 Y69.49 E.01037
;WIDTH:0.645764
G1 X37.706 Y69.43 E.00959
;WIDTH:0.597176
G1 X37.895 Y69.369 E.00882
;WIDTH:0.548588
G1 X38.083 Y69.309 E.00805
;WIDTH:0.499999
G1 X38.609 Y69.241 E.01948
G1 X39.02 Y69.278 E.01513
G1 X39.415 Y69.393 E.01513
G1 X39.782 Y69.581 E.01513
G1 X40.105 Y69.836 E.01513
G1 X40.374 Y70.149 E.01513
G1 X40.579 Y70.507 E.01513
G1 X40.711 Y70.897 E.01513
G1 X40.766 Y71.313 E.01538
G1 X40.716 Y71.856 E.02003
G1 X40.588 Y72.248 E.01513
G1 X40.388 Y72.608 E.01513
G1 X40.123 Y72.923 E.01513
G1 X39.802 Y73.182 E.01513
G1 X39.438 Y73.375 E.01513
G1 X39.043 Y73.495 E.01513
G1 X38.638 Y73.537 E.01497
G1 X38.283 Y73.51 E.01304
G1 X37.824 Y73.383 E.01752
G1 X37.398 Y73.155 E.01772
G1 X37.083 Y72.89 E.01513
G1 X36.824 Y72.569 E.01513
G1 X36.631 Y72.205 E.01513
G1 X36.512 Y71.81 E.01513
G1 X36.47 Y71.444 E.01353
G1 X36.507 Y70.99 E.01674
;WIDTH:0.53781
G1 X36.56 Y70.8 E.00783
;WIDTH:0.57562
G1 X36.613 Y70.61 E.00843
;WIDTH:0.61343
G1 X36.666 Y70.42 E.00903
;WIDTH:0.65124
G1 X36.719 Y70.231 E.00963
;WIDTH:0.698184
G1 X36.732 Y70.167 E.00342
G1 X36.734 Y70.165 E.00014
G1 E-.56 F1800
;WIPE_START
G1 F3000
G1 X37.008 Y69.839 E-.10232
G1 X37.329 Y69.551 E-.10336
G1 X37.465 Y69.507 E-.03431
;WIPE_END
G1 Z.6 F21000
G1 X59.887 Y82.891 Z.6
G1 Z.2
G1 E.8 F1800
;TYPE:Bottom surface
;WIDTH:0.504371
G1 F6300
G1 X41.513 Y64.517 E.96313
G1 X41.186 Y64.843 F21000
G1 F6300
G1 X59.56 Y83.217 E.96313
G1 X59.234 Y83.544 F21000
G1 F6300
G1 X40.86 Y65.17 E.96313
G1 X40.534 Y65.496 F21000
G1 F6300
G1 X58.908 Y83.87 E.96313
G1 X58.581 Y84.196 F21000
G1 F6300
G1 X40.207 Y65.822 E.96313
G1 X39.881 Y66.148 F21000
G1 F6300
G1 X58.255 Y84.522 E.96313
G1 X57.929 Y84.849 F21000
G1 F6300
G1 X39.555 Y66.475 E.96313
G1 X39.229 Y66.801 F21000
G1 F6300
G1 X57.603 Y85.175 E.96313
G1 X57.276 Y85.501 F21000
G1 F6300
G1 X38.902 Y67.127 E.96313
G1 X38.576 Y67.454 F21000
G1 F6300
G1 X56.95 Y85.828 E.96313
G1 X56.624 Y86.154 F21000
G1 F6300
G1 X38.25 Y67.78 E.96313
G1 X37.923 Y68.106 F21000
G1 F6300
G1 X38.948 Y69.131 E.05372
G1 X38.302 Y69.137 F21000
G1 F6300
G1 X37.597 Y68.433 E.03693
G1 X37.275 Y68.763 F21000
G1 F6300
G1 X37.781 Y69.269 E.0265
G1 E-.59573 F1800
;WIPE_START
G1 F6300
G1 X37.275 Y68.763 E-.20427
;WIPE_END
G1 Z.6 F21000
G1 X36.486 Y70.585 Z.6
G1 Z.2
G1 E.8 F1800
G1 F6300
G1 X35.98 Y70.079 E.02653
G1 X35.639 Y70.39 F21000
G1 F6300
G1 X36.356 Y71.107 E.03755
G1 X36.371 Y71.774 F21000
G1 F6300
G1 X35.313 Y70.717 E.05543
G1 E-.56 F1800
;WIPE_START
G1 F6300
G1 X36.02 Y71.424 E-.24
;WIPE_END
G1 Z.6 F21000
G1 X40.867 Y71.05 Z.6
G1 Z.2
G1 E.8 F1800
G1 F6300
G1 X56.297 Y86.48 E.80881
G1 X55.971 Y86.807 F21000
G1 F6300
G1 X40.871 Y71.707 E.7915
G1 X40.742 Y72.23 F21000
G1 F6300
G1 X55.645 Y87.133 E.78119
G1 X55.319 Y87.459 F21000
G1 F6300
G1 X40.516 Y72.656 E.77593
M73 P1 R48
G1 X40.223 Y73.016 F21000
M73 P1 R48
G1 F6300
G1 X54.992 Y87.785 E.77418
G1 X54.666 Y88.112 F21000
G1 F6300
G1 X39.855 Y73.301 E.77635
G1 X39.423 Y73.522 F21000
G1 F6300
G1 X54.34 Y88.438 E.78188
G1 X54.013 Y88.764 F21000
G1 F6300
G1 X38.896 Y73.647 E.79245
G1 X38.226 Y73.63 F21000
G1 F6300
G1 X53.687 Y89.091 E.81043
G1 X53.361 Y89.417 F21000
G1 F6300
G1 X34.987 Y71.043 E.96313
G1 X34.66 Y71.369 F21000
G1 F6300
G1 X53.034 Y89.743 E.96313
G1 X52.708 Y90.069 F21000
G1 F6300
G1 X34.334 Y71.695 E.96313
G1 X34.008 Y72.022 F21000
G1 F6300
G1 X52.382 Y90.396 E.96313
G1 X52.056 Y90.722 F21000
G1 F6300
G1 X33.682 Y72.348 E.96313
G1 X33.355 Y72.674 F21000
G1 F6300
G1 X51.729 Y91.048 E.96313
G1 X51.403 Y91.375 F21000
G1 F6300
G1 X33.029 Y73.001 E.96313
G1 X32.703 Y73.327 F21000
G1 F6300
G1 X51.077 Y91.701 E.96313
G1 X50.75 Y92.027 F21000
G1 F6300
G1 X32.376 Y73.653 E.96313
G1 X32.05 Y73.98 F21000
G1 F6300
G1 X50.424 Y92.354 E.96313
M73 P1 R47
G1 X50.098 Y92.68 F21000
M73 P1 R47
G1 F6300
G1 X31.724 Y74.306 E.96313
G1 X31.397 Y74.632 F21000
G1 F6300
G1 X49.772 Y93.006 E.96313
G1 X49.445 Y93.332 F21000
G1 F6300
G1 X31.071 Y74.958 E.96313
G1 X30.745 Y75.285 F21000
G1 F6300
G1 X49.119 Y93.659 E.96313
G1 X48.793 Y93.985 F21000
G1 F6300
G1 X30.419 Y75.611 E.96313
G1 X30.092 Y75.937 F21000
G1 F6300
G1 X48.466 Y94.311 E.96313
G1 X48.14 Y94.638 F21000
G1 F6300
G1 X29.766 Y76.264 E.96313
G1 X29.44 Y76.59 F21000
G1 F6300
G1 X47.814 Y94.964 E.96313
G1 X47.487 Y95.29 F21000
G1 F6300
G1 X29.113 Y76.916 E.96313
G1 X28.787 Y77.242 F21000
G1 F6300
G1 X47.161 Y95.616 E.96313
G1 X46.835 Y95.943 F21000
G1 F6300
G1 X28.599 Y77.707 E.95587
G1 X28.599 Y78.36 F21000
G1 F6300
G1 X46.509 Y96.269 E.93877
G1 X46.182 Y96.595 F21000
G1 F6300
G1 X28.599 Y79.012 E.92167
G1 X28.599 Y79.665 F21000
G1 F6300
G1 X39.736 Y90.801 E.58375
G1 X38.961 Y90.68 F21000
G1 F6300
G1 X28.599 Y80.318 E.54316
G1 X28.599 Y80.97 F21000
G1 F6300
G1 X38.379 Y90.75 E.51263
G1 X37.911 Y90.935 F21000
G1 F6300
G1 X28.599 Y81.623 E.48811
G1 X28.599 Y82.275 F21000
G1 F6300
G1 X37.519 Y91.195 E.46757
G1 X37.196 Y91.525 F21000
G1 F6300
G1 X28.599 Y82.928 E.45063
G1 X28.599 Y83.581 F21000
G1 F6300
G1 X36.94 Y91.921 E.43722
G1 X36.769 Y92.402 F21000
G1 F6300
G1 X28.599 Y84.233 E.42822
G1 X28.599 Y84.886 F21000
G1 F6300
G1 X36.696 Y92.983 E.42443
G1 X36.86 Y93.8 F21000
G1 F6300
G1 X28.599 Y85.538 E.43304
G1 E-.56 F1800
;WIPE_START
G1 F6300
G1 X29.306 Y86.245 E-.24
;WIPE_END
G1 Z.6 F21000
G1 X41.109 Y92.174 Z.6
G1 Z.2
G1 E.8 F1800
G1 F6300
G1 X45.856 Y96.922 E.24884
G1 X45.53 Y97.248 F21000
G1 F6300
G1 X41.248 Y92.966 E.22445
G1 X41.17 Y93.54 F21000
G1 F6300
G1 X45.203 Y97.574 E.21145
G1 X44.877 Y97.901 F21000
G1 F6300
G1 X40.983 Y94.006 E.20412
G1 X40.728 Y94.404 F21000
G1 F6300
G1 X44.551 Y98.227 E.20037
G1 X44.224 Y98.553 F21000
G1 F6300
G1 X40.402 Y94.731 E.20035
G1 X40.007 Y94.988 F21000
G1 F6300
G1 X43.898 Y98.879 E.20398
G1 X43.572 Y99.206 F21000
G1 F6300
G1 X39.534 Y95.168 E.21167
G1 X38.941 Y95.227 F21000
G1 F6300
G1 X43.246 Y99.532 E.22567
G1 X42.919 Y99.858 F21000
G1 F6300
G1 X38.139 Y95.078 E.25056
G1 E-.56 F1800
;WIPE_START
G1 F6300
G1 X38.846 Y95.785 E-.24
;WIPE_END
G1 Z.6 F21000
G1 X42.593 Y100.185 Z.6
G1 Z.2
G1 E.8 F1800
G1 F6300
G1 X28.599 Y86.191 E.73353
G1 X28.599 Y86.843 F21000
G1 F6300
G1 X42.267 Y100.511 E.71642
G1 X41.94 Y100.837 F21000
G1 F6300
G1 X28.599 Y87.496 E.69932
G1 X28.599 Y88.149 F21000
G1 F6300
G1 X41.614 Y101.164 E.68221
