; HEADER_BLOCK_START
; generated by OrcaSlicer 2.2.0-beta on 2024-10-07 at 21:41:35
; total layer number: 75
; filament_density: 1.04,1.04
; filament_diameter: 1.75,1.75
; max_z_height: 15.00
; HEADER_BLOCK_END

; THUMBNAIL_BLOCK_START

;
; THUMBNAIL_BLOCK_END

; THUMBNAIL_BLOCK_START

;
; THUMBNAIL_BLOCK_END

; external perimeters extrusion width = 0.40mm
; perimeters extrusion width = 0.40mm
; infill extrusion width = 0.45mm
; solid infill extrusion width = 0.40mm
; top infill extrusion width = 0.40mm
; first layer extrusion width = 0.50mm

; external perimeters extrusion width = 0.40mm
; perimeters extrusion width = 0.40mm
; infill extrusion width = 0.45mm
; solid infill extrusion width = 0.40mm
; top infill extrusion width = 0.40mm
; first layer extrusion width = 0.50mm

; external perimeters extrusion width = 0.40mm
; perimeters extrusion width = 0.40mm
; infill extrusion width = 0.45mm
; solid infill extrusion width = 0.40mm
; top infill extrusion width = 0.40mm
; first layer extrusion width = 0.50mm

; external perimeters extrusion width = 0.40mm
; perimeters extrusion width = 0.40mm
; infill extrusion width = 0.45mm
; solid infill extrusion width = 0.40mm
; top infill extrusion width = 0.40mm
; first layer extrusion width = 0.50mm

; external perimeters extrusion width = 0.40mm
; perimeters extrusion width = 0.40mm
; infill extrusion width = 0.45mm
; solid infill extrusion width = 0.40mm
; top infill extrusion width = 0.40mm
; first layer extrusion width = 0.50mm

; external perimeters extrusion width = 0.40mm
; perimeters extrusion width = 0.40mm
; infill extrusion width = 0.45mm
; solid infill extrusion width = 0.40mm
; top infill extrusion width = 0.40mm
; first layer extrusion width = 0.50mm

; EXECUTABLE_BLOCK_START
EXCLUDE_OBJECT_DEFINE NAME=TH_Side_Clip_x4.stl_id_0_copy_0 CENTER=84.3966,39.9181 POLYGON=[[69.3966,23.5949],[77.8966,23.5949],[86.897,26.312],[98.8108,38.2258],[98.9287,38.3544],[99.0349,38.4928],[99.1286,38.64],[99.2092,38.7948],[99.2759,38.9559],[99.3284,39.1223],[99.3662,39.2927],[99.389,39.4657],[99.3965,39.64],[99.3965,56.2413],[69.3966,56.2413],[69.3966,53.812],[69.3966,23.5949]]
EXCLUDE_OBJECT_DEFINE NAME=TH_Side_Clip_x4.stl_id_1_copy_0 CENTER=84.7683,82.1332 POLYGON=[[69.7683,65.81],[99.7683,65.81],[99.7683,68.2393],[99.7683,98.4564],[91.2683,98.4564],[82.2678,95.7393],[70.3541,83.8255],[70.2362,83.6969],[70.13,83.5584],[70.0363,83.4113],[69.9557,83.2565],[69.8889,83.0953],[69.8365,82.9289],[69.7987,82.7586],[69.7759,82.5856],[69.7683,82.4113],[69.7683,68.2393],[69.7683,65.81]]
EXCLUDE_OBJECT_DEFINE NAME=TH_Lower_Clip_Mirror_x3.stl_id_2_copy_0 CENTER=55.2004,83.4813 POLYGON=[[44.1924,98.4353],[44.2026,87.5051],[44.319,69.7305],[45.5449,68.5068],[54.2132,68.5149],[65.6238,79.9466],[65.7303,80.0621],[65.8274,80.1855],[65.9145,80.3161],[65.9911,80.4532],[66.0567,80.5959],[66.111,80.7433],[66.1535,80.8945],[66.1839,81.0485],[66.2022,81.2045],[66.2083,81.3614],[66.194,96.785],[66.1924,98.4557],[44.1924,98.4353]]
EXCLUDE_OBJECT_DEFINE NAME=TH_Lower_Clip_x3.stl_id_3_copy_0 CENTER=29.6317,83.4918 POLYGON=[[18.6317,81.8551],[18.6379,81.6982],[18.6563,81.5422],[18.687,81.3882],[18.7296,81.2371],[18.7839,81.0897],[18.8497,80.9471],[18.9264,80.8101],[19.0137,80.6795],[19.1109,80.5562],[19.2175,80.4409],[31.1312,68.5271],[39.307,68.5271],[40.5317,69.7519],[40.6317,87.5267],[40.6317,96.0271],[40.6317,98.4564],[18.6317,98.4564],[18.6317,87.5267],[18.6317,81.8551]]
EXCLUDE_OBJECT_DEFINE NAME=TH_Hinge_B_Top_x1.stl_id_4_copy_0 CENTER=33.9904,43.5949 POLYGON=[[18.0944,29.1412],[21.2823,25.9533],[21.5106,25.7389],[21.7519,25.5392],[22.0051,25.355],[22.2695,25.187],[22.5438,25.0359],[22.827,24.9023],[23.1181,24.7866],[23.4158,24.6894],[23.719,24.6111],[24.0266,24.5519],[24.3372,24.512],[24.6498,24.4917],[24.9629,24.491],[32.1318,24.6018],[32.689,24.6995],[33.8149,26.3043],[49.8812,54.6471],[49.8815,54.9668],[49.8821,55.6381],[49.8863,60.1499],[47.4597,62.5811],[47.3428,62.6982],[46.7771,62.6987],[46.7652,62.6987],[45.4494,61.3855],[45.3107,61.247],[42.2656,58.2075],[40.3561,56.3016],[28.0109,43.9793],[25.447,41.4201],[18.099,34.0857],[18.0944,29.1412]]
EXCLUDE_OBJECT_DEFINE NAME=TH_Hinge_A_Top_x1.stl_id_5_copy_0 CENTER=52.2086,38.3272 POLYGON=[[37.5693,29.208],[37.701,28.6579],[40.4476,22.0352],[40.5728,21.748],[40.7156,21.4693],[40.8756,21.2001],[41.0521,20.9414],[41.2445,20.6942],[41.452,20.4597],[41.6737,20.2385],[41.9089,20.0317],[42.1566,19.84],[42.4158,19.6641],[42.6854,19.5049],[42.9645,19.3628],[43.252,19.2385],[47.4441,17.5797],[51.9797,19.5484],[57.5381,33.6329],[65.0044,52.5521],[65.8845,54.7821],[66.8478,57.2233],[66.6178,57.7531],[66.4639,57.8138],[63.2687,59.0748],[58.7777,57.1254],[58.2209,56.8837],[38.5947,30.8789],[37.5693,29.208]]
M73 P0 R42
;TYPE:Custom
status_homing
M190 S0 ; Remove this if autoemit_temperature_commands is off in Prusa Slicer 2.6 and later
M109 S0 ; Remove this if autoemit_temperature_commands is off in Prusa Slicer 2.6 and later

_PRINT_START_PHASE_INIT EXTRUDER=245 BED=115 MESH_MIN=15.4804,15.0706 MESH_MAX=102.682,99.4999 LAYERS=75 NOZZLE_SIZE=0.4
; Insert custom gcode here.
status_heating
_PRINT_START_PHASE_PREHEAT

_PRINT_START_PHASE_PROBING

SET_LED_EFFECT EFFECT=heaterfire
_PRINT_START_PHASE_EXTRUDER


_PRINT_START_PHASE_PURGE

; This is the place to put slicer purge lines if you haven't set a non-zero
; variable_start_purge_length to have START_PRINT automatically calculate and 
; perform the purge (e.g. if using a Mosaic Palette, which requires the slicer
; to generate the purge).
status_printing
G90
G21
M83 ; use relative distances for extrusion
; Filament gcode
; MANUAL_TOOL_CHANGE T0
M106 S0
;LAYER_CHANGE
;Z:0.2
;HEIGHT:0.2
;BEFORE_LAYER_CHANGE
;0.2
G92 E0

G1 E-.8 F1800
;AFTER_LAYER_CHANGE
;0.2
;_SET_FAN_SPEED_CHANGING_LAYER
SET_VELOCITY_LIMIT ACCEL=500 ACCEL_TO_DECEL=250
SET_VELOCITY_LIMIT SQUARE_CORNER_VELOCITY=9
G1 Z.4 F21000
G1 X20.991 Y23.173
G1 Z.4
G1 Z.2
G1 E.8 F1800
;TYPE:Skirt
;WIDTH:0.5
G1 F3000
G1 X21.972 Y22.675 E.04037
G1 X46.678 Y15.329 E.9463
G1 X48.065 Y15.293 E.05095
G1 X88.541 Y25 E1.52816
G1 X89.813 Y25.713 E.05355
G1 X100.568 Y36.468 E.55843
G1 X101.033 Y37.016 E.02637
G1 X101.386 Y37.593 E.02482
G1 X101.665 Y38.267 E.02679
G1 X101.823 Y38.924 E.02481
G1 X102.454 Y67.681 E1.05604
G1 X102.454 Y94.439 E.98242
G1 X102.061 Y95.837 E.05331
G1 X100.998 Y96.827 E.05331
G1 X99.939 Y97.119 E.04037
G1 X66.164 Y99.265 E1.24249
G1 X18.824 Y99.271 E1.73805
G1 X17.426 Y98.879 E.05331
G1 X16.437 Y97.816 E.05331
G1 X16.139 Y96.604 E.04582
G1 X15.709 Y29.268 E2.47223
G1 X16.496 Y27.366 E.07555
G1 X19.998 Y23.894 E.18108
G1 X20.959 Y23.196 E.0436
G1 X21.227 Y23.565 F21000
G1 F3000
G1 X21.236 Y23.559 E.00041
G1 X22.139 Y23.1 E.0372
G1 X46.807 Y15.767 E.94482
G1 X47.959 Y15.737 E.04228
G1 X88.434 Y25.445 E1.52816
G1 X89.49 Y26.036 E.04444
G1 X100.245 Y36.791 E.55843
G1 X100.975 Y37.793 E.04552
G1 X101.371 Y38.988 E.04621
G1 X101.997 Y67.681 E1.05366
G1 X101.997 Y94.439 E.98242
G1 X101.606 Y95.7 E.04847
G1 X100.57 Y96.519 E.04847
G1 X99.91 Y96.663 E.02482
G1 X66.135 Y98.809 E1.24249
G1 X18.824 Y98.814 E1.73698
G1 X17.563 Y98.423 E.04847
G1 X16.745 Y97.387 E.04847
G1 X16.596 Y96.601 E.02939
G1 X16.166 Y29.267 E2.47213
G1 X16.819 Y27.69 E.06269
G1 X20.289 Y24.246 E.1795
G1 X21.195 Y23.589 E.04107
; printing object TH_Side_Clip_x4.stl id:0 copy 0
G1 E-.56 F1800
;WIPE_START
G1 F3000
G1 X21.236 Y23.559 E-.01228
G1 X22.082 Y23.129 E-.22772
;WIPE_END
EXCLUDE_OBJECT_START NAME=TH_Side_Clip_x4.stl_id_0_copy_0
G1 Z.6 F21000
G1 X69.647 Y27.862 Z.6
G1 Z.2
G1 E.8 F1800
;TYPE:Outer wall
;WIDTH:0.499999
G1 F3000
G1 X87.811 Y27.862 E.66688
G1 X98.484 Y38.536 E.55419
G1 X98.744 Y38.891 E.01618
G1 X98.918 Y39.352 E.01809
G1 X98.947 Y39.736 E.01413
G1 X98.947 Y54.121 E.52812
G1 X69.647 Y54.121 E1.07572
G1 X69.647 Y27.902 E.96259
G1 E-.56 F1800
;WIPE_START
G1 F3000
G1 X70.647 Y27.9 E-.24
;WIPE_END
G1 Z.6 F21000
G1 X89.885 Y47.055 Z.6
G1 Z.2
G1 E.8 F1800
G1 F3000
G1 X89.841 Y46.941 E.00448
G1 X89.752 Y46.426 E.01917
G1 X89.784 Y45.929 E.01831
G1 X89.889 Y45.547 E.01454
G1 X90.071 Y45.177 E.01513
G1 X90.321 Y44.85 E.01513
G1 X90.629 Y44.576 E.01513
G1 X90.984 Y44.366 E.01513
G1 X91.372 Y44.227 E.01514
G1 X91.78 Y44.166 E.01513
G1 X92.198 Y44.185 E.01538
G1 X92.724 Y44.329 E.02003
G1 X93.088 Y44.523 E.01513
G1 X93.407 Y44.783 E.01513
G1 X93.671 Y45.1 E.01513
G1 X93.87 Y45.461 E.01513
G1 X93.996 Y45.854 E.01513
G1 X94.044 Y46.263 E.01513
G1 X94.014 Y46.674 E.01513
G1 X93.905 Y47.071 E.01513
G1 X93.72 Y47.444 E.01526
G1 X93.422 Y47.823 E.01773
G1 X93.105 Y48.087 E.01513
G1 X92.744 Y48.286 E.01513
G1 X92.352 Y48.412 E.01513
G1 X91.942 Y48.46 E.01513
G1 X91.531 Y48.429 E.01513
G1 X91.134 Y48.321 E.01513
G1 X90.764 Y48.138 E.01513
G1 X90.436 Y47.888 E.01513
G1 X90.162 Y47.581 E.01513
G1 X89.954 Y47.23 E.01497
G1 X89.9 Y47.092 E.00545
G1 E-.56 F1800
;WIPE_START
G1 F3000
G1 X89.841 Y46.941 E-.03891
G1 X89.752 Y46.426 E-.12529
G1 X89.772 Y46.111 E-.0758
;WIPE_END
G1 Z.6 F21000
G1 X78.343 Y29.737 Z.6
G1 Z.2
G1 E.8 F1800
G1 F3000
G1 X78.416 Y29.793 E.00338
G1 X78.754 Y30.235 E.02043
G1 X78.943 Y30.657 E.01697
G1 X79.03 Y31.06 E.01513
G1 X79.039 Y31.472 E.01513
G1 X78.969 Y31.878 E.01513
G1 X78.823 Y32.263 E.01513
G1 X78.606 Y32.614 E.01513
G1 X78.22 Y32.997 E.01996
G1 X78.039 Y33.13 E.00825
G1 X77.538 Y33.361 E.02026
G1 X77.081 Y33.453 E.01713
G1 X76.668 Y33.449 E.01513
G1 X76.265 Y33.366 E.01513
G1 X75.884 Y33.207 E.01513
G1 X75.544 Y32.982 E.01498
G1 X75.29 Y32.739 E.0129
G1 X75.047 Y32.406 E.01513
G1 X74.872 Y32.033 E.01513
G1 X74.771 Y31.633 E.01513
G1 X74.749 Y31.225 E.01501
G1 X74.795 Y30.867 E.01325
G1 X74.978 Y30.346 E.02026
G1 X75.23 Y29.954 E.01713
G1 X75.52 Y29.661 E.01513
G1 X75.861 Y29.428 E.01514
G1 X76.239 Y29.265 E.01513
G1 X76.642 Y29.178 E.01513
G1 X77.054 Y29.169 E.01513
G1 X77.466 Y29.241 E.01537
G1 X77.979 Y29.457 E.02044
G1 X78.311 Y29.713 E.01538
G1 E-.56 F1800
;WIPE_START
G1 F3000
G1 X78.416 Y29.793 E-.03169
G1 X78.754 Y30.235 E-.13353
G1 X78.881 Y30.519 E-.07478
;WIPE_END
G1 Z.6 F21000
G1 X98.756 Y39.293 Z.6
G1 Z.2
G1 E.8 F1800
;TYPE:Bottom surface
;WIDTH:0.500797
G1 F6300
G1 X87.462 Y27.999 E.58744
G1 X86.815 Y27.999 F21000
G1 F6300
G1 X98.809 Y39.994 E.62387
G1 X98.809 Y40.641 F21000
G1 F6300
G1 X86.167 Y27.999 E.65755
G1 X85.52 Y27.999 F21000
G1 F6300
G1 X98.809 Y41.289 E.69123
G1 X98.809 Y41.936 F21000
G1 F6300
G1 X84.872 Y27.999 E.72491
G1 X84.225 Y27.999 F21000
G1 F6300
G1 X98.809 Y42.584 E.75859
G1 X98.809 Y43.231 F21000
G1 F6300
G1 X83.577 Y27.999 E.79227
G1 X82.93 Y27.999 F21000
G1 F6300
G1 X98.809 Y43.879 E.82595
G1 X98.809 Y44.527 F21000
G1 F6300
G1 X82.282 Y27.999 E.85963
G1 X81.634 Y27.999 F21000
G1 F6300
G1 X98.809 Y45.174 E.89331
G1 X98.809 Y45.822 F21000
G1 F6300
G1 X80.987 Y27.999 E.92699
G1 X80.339 Y27.999 F21000
G1 F6300
G1 X98.809 Y46.469 E.96067
G1 X98.809 Y47.117 F21000
G1 F6300
G1 X79.692 Y27.999 E.99435
M73 P1 R42
G1 X79.044 Y27.999 F21000
M73 P1 R42
G1 F6300
G1 X98.809 Y47.764 E1.02803
G1 X98.809 Y48.412 F21000
G1 F6300
G1 X78.397 Y27.999 E1.06171
G1 X77.749 Y27.999 F21000
G1 F6300
G1 X98.809 Y49.059 E1.09539
G1 X98.809 Y49.707 F21000
G1 F6300
G1 X77.102 Y27.999 E1.12907
G1 X76.454 Y27.999 F21000
G1 F6300
G1 X77.617 Y29.162 E.06047
G1 X76.843 Y29.036 F21000
G1 F6300
G1 X75.807 Y27.999 E.05392
G1 X75.159 Y27.999 F21000
G1 F6300
G1 X76.281 Y29.121 E.05836
G1 X75.817 Y29.305 F21000
G1 F6300
G1 X74.512 Y27.999 E.06791
G1 X73.864 Y27.999 F21000
G1 F6300
G1 X75.43 Y29.565 E.08145
G1 X75.11 Y29.892 F21000
G1 F6300
G1 X73.217 Y27.999 E.09846
G1 X72.569 Y27.999 F21000
G1 F6300
G1 X74.858 Y30.288 E.11907
G1 X74.69 Y30.768 F21000
G1 F6300
G1 X71.921 Y27.999 E.14399
G1 X71.274 Y27.999 F21000
G1 F6300
G1 X74.621 Y31.346 E.1741
G1 X74.779 Y32.152 F21000
G1 F6300
G1 X70.626 Y27.999 E.21599
G1 E-.56 F1800
;WIPE_START
G1 F6300
G1 X71.333 Y28.706 E-.24
;WIPE_END
G1 Z.6 F21000
G1 X79.064 Y30.609 Z.6
G1 Z.2
G1 E.8 F1800
G1 F6300
G1 X92.608 Y44.153 E.70446
G1 X91.844 Y44.036 F21000
G1 F6300
G1 X79.171 Y31.364 E.65911
G1 X79.095 Y31.935 F21000
G1 F6300
G1 X91.275 Y44.115 E.63352
G1 X90.817 Y44.304 F21000
G1 F6300
G1 X78.904 Y32.391 E.61962
G1 X78.64 Y32.775 F21000
G1 F6300
G1 X90.432 Y44.567 E.61333
G1 X90.112 Y44.895 F21000
G1 F6300
G1 X78.314 Y33.096 E.61368
G1 X77.909 Y33.339 F21000
G1 F6300
G1 X89.862 Y45.292 E.62172
G1 X89.688 Y45.766 F21000
G1 F6300
G1 X77.444 Y33.521 E.63685
G1 X76.863 Y33.588 F21000
G1 F6300
G1 X89.621 Y46.346 E.66359
G1 X89.78 Y47.152 F21000
G1 F6300
G1 X76.05 Y33.423 E.71408
G1 E-.56 F1800
;WIPE_START
G1 F6300
G1 X76.757 Y34.13 E-.24
;WIPE_END
G1 Z.6 F21000
G1 X94.058 Y45.603 Z.6
G1 Z.2
G1 E.8 F1800
G1 F6300
G1 X98.809 Y50.354 E.24714
G1 X98.809 Y51.002 F21000
G1 F6300
G1 X94.174 Y46.366 E.24112
G1 X94.084 Y46.924 F21000
G1 F6300
G1 X98.809 Y51.649 E.24576
G1 X98.809 Y52.297 F21000
G1 F6300
G1 X93.899 Y47.386 E.25541
G1 X93.639 Y47.774 F21000
G1 F6300
G1 X98.809 Y52.945 E.26893
G1 X98.809 Y53.592 F21000
G1 F6300
G1 X93.311 Y48.094 E.28596
G1 X92.918 Y48.348 F21000
G1 F6300
G1 X98.553 Y53.983 E.2931
G1 X97.906 Y53.983 F21000
G1 F6300
G1 X92.446 Y48.523 E.28399
G1 X91.865 Y48.59 F21000
G1 F6300
G1 X97.258 Y53.983 E.28052
G1 X96.611 Y53.983 F21000
G1 F6300
G1 X91.069 Y48.442 E.28825
G1 E-.56 F1800
;WIPE_START
G1 F6300
G1 X91.776 Y49.149 E-.24
;WIPE_END
G1 Z.6 F21000
G1 X95.963 Y53.983 Z.6
G1 Z.2
G1 E.8 F1800
G1 F6300
G1 X69.979 Y27.999 E1.3515
G1 X69.784 Y28.452 F21000
G1 F6300
G1 X95.316 Y53.983 E1.32797
G1 X94.668 Y53.983 F21000
G1 F6300
G1 X69.784 Y29.099 E1.29429
G1 X69.784 Y29.747 F21000
G1 F6300
G1 X94.021 Y53.983 E1.26061
G1 X93.373 Y53.983 F21000
G1 F6300
G1 X69.784 Y30.394 E1.22693
G1 X69.784 Y31.042 F21000
G1 F6300
G1 X92.725 Y53.983 E1.19325
G1 X92.078 Y53.983 F21000
G1 F6300
G1 X69.784 Y31.689 E1.15957
G1 X69.784 Y32.337 F21000
G1 F6300
G1 X91.43 Y53.983 E1.12589
G1 X90.783 Y53.983 F21000
G1 F6300
G1 X69.784 Y32.984 E1.09221
G1 X69.784 Y33.632 F21000
G1 F6300
G1 X90.135 Y53.983 E1.05853
M73 P1 R41
G1 X89.488 Y53.983 F21000
M73 P1 R41
G1 F6300
G1 X69.784 Y34.279 E1.02485
G1 X69.784 Y34.927 F21000
G1 F6300
G1 X88.84 Y53.983 E.99117
G1 X88.193 Y53.983 F21000
G1 F6300
G1 X69.784 Y35.574 E.95749
G1 X69.784 Y36.222 F21000
G1 F6300
G1 X87.545 Y53.983 E.92381
G1 X86.898 Y53.983 F21000
G1 F6300
G1 X69.784 Y36.87 E.89013
G1 X69.784 Y37.517 F21000
G1 F6300
G1 X86.25 Y53.983 E.85645
G1 X85.603 Y53.983 F21000
G1 F6300
G1 X69.784 Y38.165 E.82277
G1 X69.784 Y38.812 F21000
G1 F6300
G1 X84.955 Y53.983 E.7891
G1 X84.308 Y53.983 F21000
G1 F6300
G1 X69.784 Y39.46 E.75542
G1 X69.784 Y40.107 F21000
G1 F6300
G1 X83.66 Y53.983 E.72174
G1 X83.012 Y53.983 F21000
G1 F6300
G1 X69.784 Y40.755 E.68806
G1 X69.784 Y41.402 F21000
G1 F6300
G1 X82.365 Y53.983 E.65438
G1 X81.717 Y53.983 F21000
G1 F6300
G1 X69.784 Y42.05 E.6207
G1 X69.784 Y42.697 F21000
G1 F6300
G1 X81.07 Y53.983 E.58702
G1 X80.422 Y53.983 F21000
G1 F6300
G1 X69.784 Y43.345 E.55334
G1 X69.784 Y43.992 F21000
G1 F6300
G1 X79.775 Y53.983 E.51966
G1 X79.127 Y53.983 F21000
G1 F6300
G1 X69.784 Y44.64 E.48598
G1 X69.784 Y45.287 F21000
G1 F6300
G1 X78.48 Y53.983 E.4523
G1 X77.832 Y53.983 F21000
G1 F6300
G1 X69.784 Y45.935 E.41862
G1 X69.784 Y46.583 F21000
G1 F6300
G1 X77.185 Y53.983 E.38494
G1 X76.537 Y53.983 F21000
G1 F6300
G1 X69.784 Y47.23 E.35126
G1 X69.784 Y47.878 F21000
G1 F6300
G1 X75.89 Y53.983 E.31758
M73 P2 R41
G1 X75.242 Y53.983 F21000
M73 P2 R41
G1 F6300
G1 X69.784 Y48.525 E.2839
G1 X69.784 Y49.173 F21000
G1 F6300
G1 X74.594 Y53.983 E.25022
G1 X73.947 Y53.983 F21000
G1 F6300
G1 X69.784 Y49.82 E.21654
G1 X69.784 Y50.468 F21000
G1 F6300
G1 X73.299 Y53.983 E.18286
G1 X72.652 Y53.983 F21000
G1 F6300
G1 X69.784 Y51.115 E.14918
G1 X69.784 Y51.763 F21000
G1 F6300
G1 X72.004 Y53.983 E.1155
G1 X71.357 Y53.983 F21000
G1 F6300
G1 X69.784 Y52.41 E.08182
G1 X69.784 Y53.058 F21000
G1 F6300
G1 X70.709 Y53.983 E.04814
; stop printing object TH_Side_Clip_x4.stl id:0 copy 0
; printing object TH_Hinge_A_Top_x1.stl id:5 copy 0
G1 E-.56 F1800
;WIPE_START
G1 F6300
