; HEADER_BLOCK_START
; generated by OrcaSlicer 2.2.0-beta on 2024-10-07 at 21:41:33
; total layer number: 86
; filament_density: 1.04,1.04
; filament_diameter: 1.75,1.75
; max_z_height: 17.20
; HEADER_BLOCK_END

; THUMBNAIL_BLOCK_START

;
; THUMBNAIL_BLOCK_END

; THUMBNAIL_BLOCK_START

;
; THUMBNAIL_BLOCK_END

; external perimeters extrusion width = 0.40mm
; perimeters extrusion width = 0.40mm
; infill extrusion width = 0.45mm
; solid infill extrusion width = 0.40mm
; top infill extrusion width = 0.40mm
; first layer extrusion width = 0.50mm

; external perimeters extrusion width = 0.40mm
; perimeters extrusion width = 0.40mm
; infill extrusion width = 0.45mm
; solid infill extrusion width = 0.40mm
; top infill extrusion width = 0.40mm
; first layer extrusion width = 0.50mm

; external perimeters extrusion width = 0.40mm
; perimeters extrusion width = 0.40mm
; infill extrusion width = 0.45mm
; solid infill extrusion width = 0.40mm
; top infill extrusion width = 0.40mm
; first layer extrusion width = 0.50mm

; external perimeters extrusion width = 0.40mm
; perimeters extrusion width = 0.40mm
; infill extrusion width = 0.45mm
; solid infill extrusion width = 0.40mm
; top infill extrusion width = 0.40mm
; first layer extrusion width = 0.50mm

; external perimeters extrusion width = 0.40mm
; perimeters extrusion width = 0.40mm
; infill extrusion width = 0.45mm
; solid infill extrusion width = 0.40mm
; top infill extrusion width = 0.40mm
; first layer extrusion width = 0.50mm

; external perimeters extrusion width = 0.40mm
; perimeters extrusion width = 0.40mm
; infill extrusion width = 0.45mm
; solid infill extrusion width = 0.40mm
; top infill extrusion width = 0.40mm
; first layer extrusion width = 0.50mm

; EXECUTABLE_BLOCK_START
EXCLUDE_OBJECT_DEFINE NAME=TH_Top_Clip_x4.stl_id_0_copy_0 CENTER=94.6132,85.3959 POLYGON=[[77.1632,72.3457],[77.1632,72.3456],[81.5632,67.9457],[108.122,67.9457],[112.063,71.8871],[112.063,98.4461],[109.163,101.346],[107.663,102.846],[92.9916,102.846],[92.7956,102.836],[92.6014,102.808],[92.411,102.76],[92.2262,102.694],[92.0488,102.61],[91.8805,102.509],[91.7228,102.392],[91.5774,102.26],[77.749,88.4319],[77.6172,88.2865],[77.6172,88.2865],[77.5002,88.1288],[77.3994,87.9605],[77.3154,87.7831],[77.3154,87.783],[77.2493,87.5983],[77.2493,87.5983],[77.2016,87.4079],[77.1728,87.2137],[77.1632,87.0177],[77.1632,72.3457]]
EXCLUDE_OBJECT_DEFINE NAME=TH_Top_Clip_x4.stl_id_1_copy_0 CENTER=57.9919,95.501 POLYGON=[[40.5419,82.4508],[40.5419,82.4508],[44.9419,78.0508],[71.5005,78.0508],[75.4419,81.9922],[75.4419,108.551],[72.5419,111.451],[71.0419,112.951],[56.3703,112.951],[56.1743,112.942],[55.9802,112.913],[55.7898,112.865],[55.605,112.799],[55.4276,112.715],[55.2592,112.614],[55.1015,112.497],[54.9562,112.365],[41.1277,98.537],[40.9959,98.3916],[40.9959,98.3916],[40.879,98.2339],[40.7781,98.0656],[40.6942,97.8882],[40.6942,97.8882],[40.628,97.7034],[40.628,97.7034],[40.5804,97.513],[40.5515,97.3188],[40.5419,97.1228],[40.5419,82.4508]]
EXCLUDE_OBJECT_DEFINE NAME=TH_Top_Clip_x4.stl_id_2_copy_0 CENTER=86.3403,35.8362 POLYGON=[[68.8903,22.786],[68.8903,22.7859],[73.2903,18.3859],[99.8489,18.3859],[103.79,22.3273],[103.79,48.8864],[100.89,51.7865],[99.3903,53.2864],[84.7187,53.2864],[84.5227,53.2767],[84.3285,53.248],[84.1381,53.2003],[83.9533,53.1341],[83.7759,53.0502],[83.6076,52.9493],[83.4499,52.8324],[83.3045,52.7006],[69.4761,38.8722],[69.3443,38.7268],[69.3443,38.7267],[69.2273,38.5691],[69.1265,38.4008],[69.0425,38.2233],[69.0425,38.2233],[68.9764,38.0386],[68.9764,38.0385],[68.9287,37.8482],[68.8999,37.654],[68.8903,37.458],[68.8903,22.786]]
EXCLUDE_OBJECT_DEFINE NAME=TH_Top_Clip_x4.stl_id_3_copy_0 CENTER=58.3189,59.3093 POLYGON=[[40.8689,46.2591],[40.8689,46.259],[45.2689,41.8591],[71.8275,41.8591],[75.7689,45.8005],[75.7689,72.3595],[72.8689,75.2596],[71.3689,76.7595],[56.6974,76.7595],[56.5013,76.7499],[56.3072,76.7211],[56.1168,76.6734],[55.932,76.6073],[55.7546,76.5234],[55.5862,76.4225],[55.4286,76.3055],[55.2832,76.1738],[41.4547,62.3453],[41.3229,62.1999],[41.3229,62.1999],[41.206,62.0422],[41.1051,61.8739],[41.0212,61.6965],[41.0212,61.6964],[40.9551,61.5117],[40.9551,61.5117],[40.9074,61.3213],[40.8786,61.1271],[40.8689,60.9311],[40.8689,46.2591]]
EXCLUDE_OBJECT_DEFINE NAME=TH_Hinge_B_Bottom_x1.stl_id_4_copy_0 CENTER=34.3157,37.8418 POLYGON=[[6.12121,63.9592],[46.982,11.1513],[54.18,7.39323],[54.5351,7.21137],[54.9037,7.05843],[55.2833,6.93534],[55.6715,6.84293],[56.0658,6.78176],[56.4637,6.75221],[56.8627,6.75453],[57.2603,6.7886],[57.6538,6.8543],[58.0409,6.9512],[58.4191,7.07861],[58.7858,7.2358],[59.1389,7.42172],[59.476,7.63522],[59.795,7.87491],[60.0939,8.13928],[60.3708,8.42662],[60.6238,8.73515],[60.8515,9.06284],[61.0523,9.40769],[61.2249,9.76742],[61.3683,10.1398],[61.4816,10.5224],[61.564,10.9128],[61.615,11.3086],[62.5102,18.3624],[61.045,20.2597],[12.4434,68.8612],[12.0915,68.9061],[11.8928,68.9314],[7.53082,65.5563],[6.19286,64.521],[6.12129,63.9599],[6.12121,63.9592]]
EXCLUDE_OBJECT_DEFINE NAME=TH_Side_Clip_x4.stl_id_5_copy_0 CENTER=22.5605,77.3249 POLYGON=[[5.79156,78.2606],[7.50931,76.5428],[28.8761,55.1761],[34.8865,61.1865],[39.3294,69.4721],[39.3294,86.3207],[39.3218,86.495],[39.2991,86.668],[39.2613,86.8383],[39.2088,87.0047],[39.1421,87.1659],[39.0615,87.3207],[38.9678,87.4679],[38.8615,87.6063],[38.7437,87.7349],[28.7225,97.756],[27.0047,99.4738],[5.79156,78.2606]]
M73 P0 R54
;TYPE:Custom
status_homing
M190 S0 ; Remove this if autoemit_temperature_commands is off in Prusa Slicer 2.6 and later
M109 S0 ; Remove this if autoemit_temperature_commands is off in Prusa Slicer 2.6 and later

_PRINT_START_PHASE_INIT EXTRUDER=245 BED=115 MESH_MIN=4.29809,4.13596 MESH_MAX=111.777,115.565 LAYERS=86 NOZZLE_SIZE=0.4
; Insert custom gcode here.
status_heating
_PRINT_START_PHASE_PREHEAT

_PRINT_START_PHASE_PROBING

SET_LED_EFFECT EFFECT=heaterfire
_PRINT_START_PHASE_EXTRUDER


_PRINT_START_PHASE_PURGE

; This is the place to put slicer purge lines if you haven't set a non-zero
; variable_start_purge_length to have START_PRINT automatically calculate and 
; perform the purge (e.g. if using a Mosaic Palette, which requires the slicer
; to generate the purge).
status_printing
G90
G21
M83 ; use relative distances for extrusion
; Filament gcode
; MANUAL_TOOL_CHANGE T0
M106 S0
;LAYER_CHANGE
;Z:0.2
;HEIGHT:0.2
;BEFORE_LAYER_CHANGE
;0.2
G92 E0

G1 E-.8 F1800
;AFTER_LAYER_CHANGE
;0.2
;_SET_FAN_SPEED_CHANGING_LAYER
SET_VELOCITY_LIMIT ACCEL=500 ACCEL_TO_DECEL=250
SET_VELOCITY_LIMIT SQUARE_CORNER_VELOCITY=9
G1 Z.4 F21000
G1 X34.003 Y28.931
G1 Z.4
G1 Z.2
G1 E.8 F1800
;TYPE:Skirt
;WIDTH:0.5
G1 F3000
G1 X50.862 Y7.144 E1.01141
G1 X51.981 Y6.016 E.05834
G1 X52.628 Y5.546 E.02935
G1 X53.513 Y5.057 E.03712
G1 X54.239 Y4.764 E.02877
G1 X55.232 Y4.5 E.0377
G1 X56.69 Y4.365 E.05376
G1 X57.881 Y4.471 E.0439
G1 X59.04 Y4.767 E.0439
G1 X99.419 Y19.054 E1.57256
G1 X100.422 Y19.687 E.04355
G1 X102.489 Y21.754 E.10732
G1 X103.239 Y23.211 E.06016
G1 X111.549 Y73.213 E1.86095
G1 X111.549 Y101.222 E1.02834
M73 P0 R53
G1 X110.762 Y103.121 E.07547
M73 P0 R53
G1 X109.438 Y104.445 E.06876
G1 X108.253 Y105.135 E.05033
G1 X71.632 Y115.24 E1.39476
G1 X70.918 Y115.337 E.02647
G1 X56.37 Y115.337 E.53409
G1 X55.224 Y115.183 E.04245
G1 X54.316 Y114.826 E.03583
G1 X26.933 Y100.385 E1.13657
G1 X26.287 Y99.909 E.02948
G1 X5.215 Y78.837 E1.09408
G1 X4.504 Y77.571 E.05331
G1 X4.546 Y76.154 E.05202
G1 X9.011 Y61.514 E.56195
G1 X9.455 Y60.654 E.03555
G1 X33.979 Y28.963 E1.47118
G1 X34.34 Y29.242 F21000
G1 F3000
G1 X51.212 Y7.438 E1.01219
G1 X52.278 Y6.363 E.05559
G1 X52.868 Y5.935 E.02676
G1 X53.717 Y5.467 E.0356
G1 X54.475 Y5.168 E.02993
G1 X55.33 Y4.946 E.03242
G1 X56.687 Y4.822 E.05003
G1 X57.806 Y4.921 E.04123
G1 X58.894 Y5.2 E.04123
G1 X99.267 Y19.485 E1.57231
G1 X100.099 Y20.01 E.03614
G1 X102.166 Y22.077 E.10732
G1 X102.788 Y23.286 E.04992
G1 X111.092 Y73.213 E1.85819
G1 X111.092 Y101.222 E1.02834
G1 X110.439 Y102.798 E.06262
G1 X109.115 Y104.122 E.06876
G1 X108.132 Y104.694 E.04176
G1 X71.51 Y114.799 E1.39476
G1 X70.918 Y114.88 E.02196
G1 X56.37 Y114.88 E.53409
G1 X55.335 Y114.74 E.03834
G1 X54.529 Y114.422 E.03181
G1 X27.147 Y99.981 E1.13657
G1 X26.61 Y99.585 E.02446
G1 X5.539 Y78.514 E1.09408
G1 X4.923 Y77.346 E.04847
G1 X4.983 Y76.288 E.0389
G1 X9.448 Y61.647 E.56195
G1 X9.817 Y60.934 E.0295
G1 X34.315 Y29.274 E1.46971
; printing object TH_Top_Clip_x4.stl id:2 copy 0
G1 E-.56 F1800
;WIPE_START
G1 F3000
G1 X34.927 Y28.483 E-.24
;WIPE_END
EXCLUDE_OBJECT_START NAME=TH_Top_Clip_x4.stl_id_2_copy_0
G1 Z.6 F21000
G1 X100.24 Y51.659 Z.6
G1 Z.2
G1 E.8 F1800
;TYPE:Outer wall
;WIDTH:0.499999
G1 F3000
G1 X99.162 Y52.736 E.05594
G1 X84.87 Y52.736 E.52473
G1 X84.299 Y52.671 E.02112
G1 X83.91 Y52.488 E.01578
G1 X83.685 Y52.303 E.01069
G1 X69.972 Y38.591 E.71197
G1 X69.614 Y38.14 E.02113
G1 X69.469 Y37.735 E.0158
G1 X69.44 Y37.446 E.01067
G1 X69.44 Y23.014 E.52985
G1 X70.618 Y21.836 E.06116
G1 X98.42 Y21.836 E1.02071
G1 X100.34 Y23.756 E.09971
G1 X100.34 Y51.559 E1.02073
G1 X100.268 Y51.631 E.00374
G1 E-.56 F1800
;WIPE_START
G1 F3000
G1 X99.561 Y52.338 E-.24
;WIPE_END
G1 Z.6 F21000
G1 X91.751 Y43.544 Z.6
G1 Z.2
G1 E.8 F1800
G1 F3000
G1 X92.094 Y43.55 E.0126
G1 X92.676 Y43.682 E.0219
G1 X93.122 Y43.906 E.01833
G1 X93.468 Y44.184 E.01628
G1 X93.752 Y44.525 E.01629
G1 X93.963 Y44.914 E.01628
G1 X94.094 Y45.336 E.01619
G1 X94.138 Y45.728 E.01451
G1 X94.106 Y46.171 E.01628
G1 X93.988 Y46.598 E.01629
G1 X93.788 Y46.994 E.01629
G1 X93.514 Y47.343 E.01628
G1 X93.18 Y47.63 E.01618
G1 X92.837 Y47.827 E.01452
G1 X92.418 Y47.973 E.01628
G1 X91.979 Y48.034 E.01629
G1 X91.536 Y48.008 E.01628
G1 X91.109 Y47.896 E.01619
G1 X90.752 Y47.726 E.01451
G1 X90.394 Y47.466 E.01628
G1 X90.093 Y47.139 E.01628
G1 X89.863 Y46.76 E.01629
G1 X89.711 Y46.344 E.01629
G1 X89.645 Y45.908 E.01618
G1 X89.658 Y45.513 E.01452
G1 X89.755 Y45.08 E.01628
G1 X89.935 Y44.675 E.01628
G1 X90.192 Y44.313 E.01629
G1 X90.485 Y44.03 E.01496
G1 X90.887 Y43.774 E.01749
G1 X91.36 Y43.61 E.01837
G1 X91.711 Y43.549 E.01311
G1 E-.56 F1800
;WIPE_START
G1 F3000
G1 X92.094 Y43.55 E-.09185
G1 X92.676 Y43.682 E-.14317
G1 X92.695 Y43.691 E-.00498
;WIPE_END
G1 Z.6 F21000
G1 X74.377 Y31.281 Z.6
G1 Z.2
G1 E.8 F1800
G1 F3000
G1 X74.35 Y31.233 E.00202
G1 X74.204 Y30.815 E.01628
G1 X74.142 Y30.375 E.01629
G1 X74.169 Y29.932 E.01629
G1 X74.281 Y29.506 E.01619
G1 X74.45 Y29.149 E.01452
G1 X74.711 Y28.79 E.01628
G1 X75.037 Y28.49 E.01629
G1 X75.416 Y28.259 E.01629
G1 X75.833 Y28.108 E.01629
G1 X76.269 Y28.041 E.01618
G1 X76.664 Y28.054 E.01452
G1 X77.097 Y28.151 E.01628
G1 X77.502 Y28.332 E.01629
G1 X77.865 Y28.588 E.01629
G1 X78.169 Y28.91 E.01629
G1 X78.407 Y29.294 E.01658
G1 X78.589 Y29.815 E.02026
G1 X78.633 Y30.427 E.02253
G1 X78.496 Y31.073 E.02423
G1 X78.272 Y31.519 E.01834
G1 X77.994 Y31.865 E.01629
G1 X77.653 Y32.149 E.01629
G1 X77.263 Y32.36 E.01629
G1 X76.842 Y32.491 E.01619
G1 X76.449 Y32.535 E.01452
G1 X76.006 Y32.503 E.01628
G1 X75.579 Y32.385 E.01629
G1 X75.183 Y32.185 E.01629
G1 X74.834 Y31.911 E.01629
G1 X74.547 Y31.576 E.01618
G1 X74.397 Y31.316 E.01103
G1 E-.56 F1800
;WIPE_START
G1 F3000
G1 X74.35 Y31.233 E-.02283
G1 X74.204 Y30.815 E-.10643
G1 X74.142 Y30.375 E-.10648
G1 X74.143 Y30.358 E-.00426
;WIPE_END
G1 Z.6 F21000
G1 X98.07 Y21.973 Z.6
G1 Z.2
G1 E.8 F1800
;TYPE:Bottom surface
;WIDTH:0.502836
G1 F6300
G1 X100.203 Y24.106 E.11144
G1 X100.203 Y24.757 F21000
G1 F6300
G1 X97.42 Y21.973 E.14542
G1 X96.769 Y21.973 F21000
G1 F6300
G1 X100.203 Y25.407 E.1794
G1 X100.203 Y26.057 F21000
G1 F6300
G1 X96.119 Y21.973 E.21338
G1 X95.468 Y21.973 F21000
G1 F6300
G1 X100.203 Y26.708 E.24736
G1 X100.203 Y27.358 F21000
G1 F6300
G1 X94.818 Y21.973 E.28134
G1 X94.168 Y21.973 F21000
G1 F6300
G1 X100.203 Y28.009 E.31532
G1 X100.203 Y28.659 F21000
G1 F6300
G1 X93.517 Y21.973 E.3493
G1 X92.867 Y21.973 F21000
G1 F6300
G1 X100.203 Y29.309 E.38328
G1 X100.203 Y29.96 F21000
G1 F6300
G1 X92.216 Y21.973 E.41726
G1 X91.566 Y21.973 F21000
G1 F6300
G1 X100.203 Y30.61 E.45124
G1 X100.203 Y31.261 F21000
G1 F6300
G1 X90.915 Y21.973 E.48522
G1 X90.265 Y21.973 F21000
G1 F6300
G1 X100.203 Y31.911 E.5192
G1 X100.203 Y32.562 F21000
G1 F6300
G1 X89.615 Y21.973 E.55318
G1 X88.964 Y21.973 F21000
G1 F6300
G1 X100.203 Y33.212 E.58716
G1 X100.203 Y33.862 F21000
G1 F6300
G1 X88.314 Y21.973 E.62114
G1 X87.663 Y21.973 F21000
G1 F6300
G1 X100.203 Y34.513 E.65512
G1 X100.203 Y35.163 F21000
G1 F6300
G1 X87.013 Y21.973 E.6891
G1 X86.363 Y21.973 F21000
G1 F6300
G1 X100.203 Y35.814 E.72309
G1 X100.203 Y36.464 F21000
G1 F6300
G1 X85.712 Y21.973 E.75707
G1 X85.062 Y21.973 F21000
G1 F6300
G1 X100.203 Y37.114 E.79105
G1 X100.203 Y37.765 F21000
G1 F6300
G1 X84.411 Y21.973 E.82503
G1 X83.761 Y21.973 F21000
G1 F6300
G1 X100.203 Y38.415 E.85901
G1 X100.203 Y39.066 F21000
G1 F6300
G1 X83.11 Y21.973 E.89299
G1 X82.46 Y21.973 F21000
G1 F6300
G1 X100.203 Y39.716 E.92697
G1 X100.203 Y40.367 F21000
G1 F6300
G1 X81.81 Y21.973 E.96095
G1 X81.159 Y21.973 F21000
G1 F6300
G1 X100.203 Y41.017 E.99493
G1 X100.203 Y41.667 F21000
G1 F6300
G1 X80.509 Y21.973 E1.02891
G1 X79.858 Y21.973 F21000
G1 F6300
G1 X100.203 Y42.318 E1.06289
M73 P1 R53
G1 X100.203 Y42.968 F21000
M73 P1 R53
G1 F6300
G1 X79.208 Y21.973 E1.09687
G1 X78.557 Y21.973 F21000
G1 F6300
G1 X100.203 Y43.619 E1.13085
G1 X100.203 Y44.269 F21000
G1 F6300
G1 X77.907 Y21.973 E1.16483
G1 X77.257 Y21.973 F21000
G1 F6300
G1 X100.203 Y44.92 E1.19881
G1 X100.203 Y45.57 F21000
G1 F6300
G1 X76.606 Y21.973 E1.23279
G1 X75.956 Y21.973 F21000
G1 F6300
G1 X100.203 Y46.22 E1.26677
G1 X100.203 Y46.871 F21000
G1 F6300
G1 X75.305 Y21.973 E1.30075
G1 X74.655 Y21.973 F21000
G1 F6300
G1 X100.203 Y47.521 E1.33473
G1 X100.203 Y48.172 F21000
G1 F6300
G1 X74.005 Y21.973 E1.36871
G1 X73.354 Y21.973 F21000
G1 F6300
G1 X100.203 Y48.822 E1.40269
G1 X100.203 Y49.472 F21000
G1 F6300
G1 X72.704 Y21.973 E1.43667
G1 X72.053 Y21.973 F21000
G1 F6300
G1 X100.203 Y50.123 E1.47065
G1 X100.203 Y50.773 F21000
G1 F6300
G1 X93.829 Y44.399 E.33299
G1 E-.56 F1800
;WIPE_START
G1 F6300
G1 X94.536 Y45.107 E-.24
;WIPE_END
G1 Z.6 F21000
G1 X94.242 Y45.462 Z.6
G1 Z.2
G1 E.8 F1800
G1 F6300
G1 X100.203 Y51.424 E.31145
G1 X99.917 Y51.788 F21000
G1 F6300
G1 X94.249 Y46.12 E.29613
G1 X94.114 Y46.635 F21000
G1 F6300
G1 X99.592 Y52.113 E.28618
G1 X99.267 Y52.438 F21000
G1 F6300
G1 X93.895 Y47.067 E.28061
G1 X93.61 Y47.432 F21000
G1 F6300
G1 X98.777 Y52.599 E.26997
G1 X98.127 Y52.599 F21000
G1 F6300
G1 X93.26 Y47.733 E.25426
G1 X92.846 Y47.969 F21000
G1 F6300
G1 X97.476 Y52.599 E.24191
G1 X96.826 Y52.599 F21000
G1 F6300
G1 X92.348 Y48.121 E.23395
G1 X91.731 Y48.154 F21000
G1 F6300
G1 X96.175 Y52.599 E.23221
G1 X95.525 Y52.599 F21000
G1 F6300
G1 X90.847 Y47.921 E.2444
G1 E-.56 F1800
;WIPE_START
G1 F6300
G1 X91.554 Y48.628 E-.24
;WIPE_END
G1 Z.6 F21000
G1 X93.331 Y43.901 Z.6
G1 Z.2
G1 E.8 F1800
G1 F6300
G1 X78.295 Y28.865 E.78553
G1 E-.56 F1800
;WIPE_START
G1 F6300
G1 X79.002 Y29.572 E-.24
;WIPE_END
G1 Z.6 F21000
G1 X78.742 Y29.963 Z.6
G1 Z.2
G1 E.8 F1800
G1 F6300
G1 X92.221 Y43.441 E.70416
G1 X91.563 Y43.434 F21000
G1 F6300
G1 X78.739 Y30.61 E.66997
G1 X78.617 Y31.138 F21000
G1 F6300
G1 X91.045 Y43.566 E.64928
G1 X90.613 Y43.785 F21000
G1 F6300
G1 X78.401 Y31.572 E.63803
G1 X78.111 Y31.934 F21000
G1 F6300
G1 X90.249 Y44.071 E.63409
G1 X89.948 Y44.421 F21000
G1 F6300
G1 X77.765 Y32.238 E.63647
G1 X77.349 Y32.472 F21000
G1 F6300
G1 X89.714 Y44.837 E.64597
G1 X89.558 Y45.331 F21000
G1 F6300
G1 X76.848 Y32.622 E.66398
G1 X76.232 Y32.656 F21000
G1 F6300
G1 X89.514 Y45.937 E.69387
G1 X89.735 Y46.81 F21000
G1 F6300
G1 X75.343 Y32.418 E.75189
G1 E-.56 F1800
;WIPE_START
G1 F6300
G1 X76.051 Y33.125 E-.24
;WIPE_END
G1 Z.6 F21000
G1 X77.811 Y28.381 Z.6
G1 Z.2
G1 E.8 F1800
G1 F6300
G1 X71.403 Y21.973 E.33477
G1 X70.752 Y21.973 F21000
G1 F6300
G1 X76.71 Y27.93 E.31122
G1 X76.063 Y27.934 F21000
G1 F6300
G1 X70.389 Y22.26 E.29646
G1 X70.063 Y22.585 F21000
G1 F6300
G1 X75.547 Y28.068 E.28646
G1 X75.111 Y28.283 F21000
G1 F6300
